X:1
T:Suite for Three Violins
T:Op. 133
T:Emanuel Moór
T:VIOLIN 1
L:1/8
Q:1/4=90
M:4/4
K:Bb
V:1 treble nm="Violin"
V:1
"^I"!f!"^Andante espressivo" !tenuto![G,DBg]2 !tenuto!G2 !tenuto![G,DBg]2 (ba) | %1
 !tenuto![G,DBg]2 !tenuto!G2 !tenuto![Ge]2 (fe | d)(^fgd) ([Ec]2 B2) | %3
 [CA]!>(!(BcB) [CA]2 (G^F)!>)! |!p! !tenuto!G2 !tenuto!G,2 !tenuto!G2 (BA) | %5
!<(! (GAB=B)!>(! (c2 _B2)!<)!!>)! | (ef _g2) (_d2 c2) | (c2 F2) (B2 c2) | %8
 (d2 Bd) (!tenuto!f2 !tenuto!f2) | (^f2 d=e f2) !tenuto!f2 | !tenuto!g2 (G2 g2) (ba | %11
 gf)(ed cB)(eG) | (ABcd ea)(bc') | (d'e')(d'g d'e')(d'g) | (_d'e')(d'_d) (_a4- | %15
 a=a)(^f=e ^d)(^A^B^G) |!pp! ^c2 ^C2 (c2 =e^d) |"^cresc." (^c^d)(=ed e^f)(^ga) | %18
 (^g^c')(^f=e ^df)(^A^B) | (^c^C)(c^d =e=E)(e^f | gf)(=eb gf)(e^c') |!ff! d'2 (d2 d'2) (f'=e' | %22
 d'2) (d2 c'2) c2 | (=b2 =B2) (_b2 _B2) | (a2 A2) (agab) | (g2 B2) (g2 b2) | %26
 (f2 B2)!<(! (f2 bc')!<)! | (d'2 d2) (d'2 f'=e') | d'8 | c'8 | %30
!>(! (3(ff'g) (3(af'b) (3(c'f'd') (3(=e'ff')!>)! |!p! (3(^f'^c'f') (3(c'ac') (3(a^fa) (3(f^c=f- | %32
 (3f)(c^f (3gdg) (3(dGB) (3(GG,G) |!pp! (3(^G^G,)G- (3G(G,G- (3G)(G,G- (3G)(G,G) | %34
 (3(AA,)A- (3A(A,A- (3A)(A,A- (3A)(A,A) | (3(BB,B- (3B)B,(B (3=B)(=B,G- (3G)(B,B- | %36
"^cresc" (3B)(=B,G) (3(^G^DG) (3(=e=Ee) (3(^dDd) | (3(^c^Cc) (3(^d^Dd) (3(^e^Ee) (3(^^f^^Ff) | %38
!f! (3(^g^G)(g- (3gG)(g- (3gG)(g- (3gG)g- | (3g(^G^g- (3g)(=b^a (3g^f)(=e (3^d^ce) | %40
 (3^d^D(d- (3d=ed) (3(^c=B^A (3^G^^FG) |!pp! (3=E!>(!EE z2!>(! (3EEE z2!>)!!>)! | z8 | %43
 z2 (^C2 =E2 A2) | [A^c]4 [Ac]4 | [B^c]4 [Bc]4 | [^G=B]4 [GB]4 | [A^f]4 [Af]4 | [Bc]4 [Bc]4 | %49
!<(! T^f4 Tf3 g!<)! |!p! !tenuto!g2 (G2 g2) (ba) | g2 (G2 e2 fe) | (d^fgd) (c2 B2) | %53
 (ABcB) (A2 G^F) | G2 (G2 B2) B2 | [GB]2!<(! ([GB][Ac] [Bd]2) (d2!<)! |!<(! g2) g4 g2-!<)! | %57
 g2 (g2 ^f2) f2 |!pp! g2 (g2 b2) (b2 | g2) (ga b2) ^f2 | g4 g4- |"^Rit." g4 g4 | %62
!ppp! !fermata!g8 |][M:4/4][Q:1/4=120] z8 | z8 | z8 | z8 | z8 | z8 | z8 | z8 | z8 | z8 | z8 | %74
!f! ffaf c'fbd' | c'f'- f'/c'/d'/c'/ b/g/a/=e/ f/a/b/d'/ | c'f'- f'/c'/d'/c'/ b/g/a/=e/ f/a/b/d'/ | %77
 c'/d'/e'/d'/ c'/e'/=e'/f'/ _g'/f'/_e'/_d'/ c'/b/_a/_g/ | %78
 f/_a/g/=e/ f/a/b/c'/ _d'/c'/b/a/ _g/f/_e/_d/ | e/_d/B/_G/ _A/c/e/f/ _g/f/d/B/ c/e/g/_a/ | %80
 b/_a/_g/f/ e/f/g/B/ c/_d/e/c/ _A/_G/F/E/ | _DD!>!FD _AD!>!_GB | E4 z2 E_G | (=E6 ^D2) | %84
 !>!=E=e!>!=B^c !>!^GA!>!B=B, | =E/E/E/^F/ G/G/G/E/ c/c/c/=B/ A/A/A/G/ | %86
 F/G/A/B/!<(! =B/c/^c/d/!>(! e/d/=c/_B/ A/G/F/E/!<)!!>)! | E z z2 z4 | D2 z2 z2 DD/=E/ | %89
 ^FA- A/C/D/G/ Ee- e/G/_A/c/ | F(fgf) (efg)!tenuto!a |!ff! b2 z2 z4 | z2 z2 f2 z2 | z2 z2 f2 z2 | %94
 f4 G4 | c/d/e/f/ g/a/b/=b/ c'/g/a/=e/!<(! f/g/^g/a/!<)! | !>!bbd'b fbdf | BfdB fdBf | BgeB geBg | %99
 B(_ac)(a d)(ae)(a | f)(_af)(b c')(f^c'd') | !trill(!Te'8- | e'8 | Te'8 | Te'8 | %105
{d'e'} _a z z2 a/c'/a/e/ c/_A/E/C/ | =B,/^C/^D/=E/ F/^G/^A/=B/ D2 z2 | %107
 g/^f/=e/d/ ^c/d/e/f/ g/f/e/f/ g/a/=b/^c'/ | d'2 z2 z2 d'2- | d'4 d'4 | d'2 z2 z4 | %111
!ff! =b!>!=e'- e'/b/g/=e/ =B/e/G/B/ e/g/b/e'/ | =e' z c' z g z c z | [G=e] z z2 z4 | %114
 =EC!>(!GC G,CGc!>)! |!p! (B,4 _A,4) | z2 _D2 z2 ^C2 | !>!dd!>!^fd !>!ad!>!fa | %118
 b_dgb b/c'/_d'/b/ g/e/=d/_d/ |!f! c2 z2 z4 | _A,4 z4 | e _a2 c'2 e'2 a | =a c'2 e2 (c'2 e') | %123
 e'/c'/a/f/ e/c/A/F/ E/F/G/D/ E/F/G/A/ | B2 z2 z4 |!p! f z f6- | f z f6- | f z z2 z4 | %128
 z2!p! (e'd') (c'4 | d'2 _d'2) c'4 | d' z z2 z2 e z |!ff! bbd'b ggbg | fbfd efga | bd'ba gabg | %134
 fbfd efga | b/b/d'/b/ c'/d'/e'/=e'/ f'/d'/b/f/ d/B/F/B/ | d/F/G/A/ B/c/d/e/ f/B/c/d/ e/f/g/a/ | %137
 b z _GE F z D z |!ff! !fermata!B,8 || %139
[K:Eb][M:4/4]"^III"[Q:1/4=72]"^Adagio espressivo"!p! (E2 G2 A2 Bc) | (B2 =e2 f2 dB) | %141
 (A2 e2) (f2 ga) | (a2 fg) (g2 d2) |!<(! (e4- e!>(!fgc)!<)!!>)! | (e2 B2) (b4- | b2 c'2) (g2 a2) | %146
 b4!>(! b4-!>)! | b4 z4 |!<(! (e2 _dg!>(! a2 fd)!<)!!>)! | c2 g2!<(! c'4-!<)! | %150
 c'(_d'!<(!c'=e' f'2 e'2)!<)! | (d'2 c'2- c')(a =b2) | (g2 g'2- g'e'c'g) | (_g2 _g'2- g'e'_c'g) | %154
 (_g2 f2- f2) (=ga) | [dg]4 (a2 bc') | (b=e' f'2 d'2 b2) | (a2 e'2) (f'2 g'a') | %158
 (a'2 f'g') (g'2 g2) | (g=a b2) b4- | b2 (=ag) ^c'4 | (d'2 a>b) b4- | b2 (g>f) (e2 f2) | %163
 (f2 e>d) (b2 =b2) |!<(! (d4!>(! ^c4)!<)!!>)! |!pp! (A2 d2) (^c>d) T=e2 | %166
{d=e} (3(fg=a (3^gf^c) (3(df_a (3=gfc) | (3(df=e (3fg=a) (3(ac'b (3abc') | %168
 (f2 b2) (3=a(ab)"^" Tc'2 |{bc'} (3(_d'f'e' (3f'd'c') (3(bc'd' d'>e) | (e2 _g2) (e2 _f2) | %171
 (=e2 g2 e2 f2) | (3(b=ag) (^c'>d' f'd')(=e'c') | =c'4 (3(^c'c'd') T=e'2 | %174
!pp!{d'=e'} (3(f'g'=a' (3^g'f'^c') (3(d'f'a' (3g'f'c') | (3(d'f'=e' (3d'=af) (3(dDc (3BD=A) | %176
 _A4 (3(fdB) A2 |!<(!{GA} (3G(GA (3B)(cd (3efg) (3(gab)!<)! | (3(aga) (3(ab_c') (3(fef (3_g=ga) | %179
 (_g2 e>g) (f2 e2) | e'2 Tb2{=ab} (c'b_ag) | (fgab[Q:1/4=72]"^Poco Rall." =bc')(cd) | %182
[Q:1/4=72]"^Tempo I" (e2 g2 a2 bc') | (b=e' f'2 d'2 b2) | (a2 e'2 f'2 g'a') | (a'2 f'g') (g'2 b2) | %186
 (e'4- e'f'g'c') | (e'2 b2) (b4- | b2 c'2) (g2 f2) |!<(! (e2 G2 A2 c2)!<)! | B4!<(! B4!<)! | %191
 B4 _G2 A2 |!>(! B4 B,4!>)! |!pp! (E2 G2 A2 Bc) | (c2 B2) (e2 E2) | (c2 B2 e2 gb) | %196
 (c'2 c2) (b2 a2) |!pp! e'8 | !fermata!e'8 || %199
[K:G][M:3/4]"^IV"!f![Q:1/4=158]"^Allegro Vivace" g3 d d2 | B3 G G2 | cB AG FE |!<(! D2 G2 A2!<)! | %203
!>(! B2 G2 E2!>)! | !>!^CC C4 | !>!AA A4 |!p! DE FG F z | A^c de f z | B z e z f z | ge fd ^cB | %210
 A^c df ^ga | bd fB df | ed B^c F^G | A2 z2 A,2 | B, z D z ^C z | B, z A, z A z |!<(! Td6!<)! | %217
 Td6 | g'3 d' d'2 | b3 g g2 | c'b ag fe | d2 g2 a2 | b2 g2 e2 | ^cc c4 | aa a4 | d_e fa fd | %226
 cc c4 | _bb b4 | fg ab gd | _ee e4 | c'c' c'4 | e=f ac' af |!pp! _b z d' z b z | =f z d z f z | %234
 _BB d z B z | _e z _B z G z | _E z G z E z | G,_E GB cd | _ed c_B AG | FG A_B cd | _ef ^g=g ^ga | %241
 _b2 z4 | z6 | z6 | B,B, B,2 z2 | z6 | z2 z2"^pizz." G,2 | z2 C2 _E2 | z2 G2 c2 | z2 _A,2 z2 | %250
"^arco" G,G, (G,4 | G,)G, G,4 | z6 | z2 _A, z _A z | G,G, G,4- | G,2 z4 | z6 | DD D2 z2 | %258
 F2 _B2 c2 |!>(! d2 _B2 G2!>)! |!>(! _EE E4!>)! | cc c4 | DE FG A_B | G=F _EG AB | [G,_Ec]2 z4 | %265
 z6 | z6 | z6 | z6 | z6 | z6 | z6 | C2 z4 | D2 z4 | _E2 z4 | _D2 z4 | _G=F G_D GF | E^D EB, ED | %278
 D^C DA, B,C | DE FG AD | _D2 z2 _E2 | _A2 z2 GA | =F2 z4 | _d2 z4 | _AG A_E AG | =F_E _DE FG | %286
 _AG A_E _dc | _B_A Gc _d_e | c_e _ae ce | _a_e ce ag | _g_c' g_e _c_G | _E_G E_C _B,A, | %292
 !>!_A,6- | A,6 |!p! G,6- | G,6 | F3 D D2 | d3 A A2 | d2 G2 d2- | d2 G2 B2 | E2 z2 G2- | G2 z4 | %302
 G2 z2 [GA]2 |!ff! A2 z4 | z6 | D2 F2 A2 | d2 fa d'2 | _e'2 _b2 g2 | _e2 _B2 G2 | _E2 G2 _B2 | %310
 _e2 =f^f g2 | _ag a_e ag | =fe f_A f_e | _dc _Bc d_e | =f^f g_e _a_b | c'4 z2 | b4 z2 | _b4 z2 | %318
 a4 z2 | A4 z2 | BG DB, DG | BG EB, EG | cA EC EA | cA =FC FA | _eA CA ce | f_e cA =e=f | %326
 f_e cA =e=f |!ff! !trill(!T^f6- | ^f6 | g3 d d2 | B3 G G2 | cB AB cd | ed cd ef | gf ef gb | %334
 c'a fd' e'f' | (g'2 d'2) (b2 | g2) (d2 b2) | (c'2 e'2) [DAf]2 |!ff! !fermata![G,DBg]6 |] %339

